X: 43091
T: Winding Clock, The
R: jig
M: 6/8
K: Edorian
EDE BAF|ABd e2f|gfe age|dBA GFG|
Ade f2g|fed BAF|DFA dcd|1 BAF E2D:|2 BAF E2f||
gfg aga|bge e2f|gbb b2a|afe d2e|
fef gfg|aba fed|BAF dcd|1 BAF E2f:|2 BAF E3||

